X:5
T:Over Young to Marry. LIT.005
M:2/2
Q:1/4=140
L:1/8
B:Wm. Litten MS, 1802
Z:Village Music Project 2017 Anne Wride
K:Em
c | Bd GB c2B2 | Bd GB cA Ac | ((3BdB) GB c2B2 | ef ge dB B :|
|: f | ga ge ab af | ga ge dB B2 | ga ge ab af | ga ge dB Bf |
ga ge ab af | ga ge dB B2 | GE DE GA Bd | ef ge dB B :|

